Systematic/src/svg/Bit Corporation - Gamate-content.svg

<?xml version="1.0" encoding="UTF-8" standalone="no"?>
<svg
   xmlns:dc="http://purl.org/dc/elements/1.1/"
   xmlns:cc="http://creativecommons.org/ns#"
   xmlns:rdf="http://www.w3.org/1999/02/22-rdf-syntax-ns#"
   xmlns:svg="http://www.w3.org/2000/svg"
   xmlns="http://www.w3.org/2000/svg"
   viewBox="0 0 224 330.66665"
   height="330.66666"
   width="224"
   xml:space="preserve"
   id="svg2"
   version="1.1"><metadata
     id="metadata8"><rdf:RDF><cc:Work
         rdf:about=""><dc:format>image/svg+xml</dc:format><dc:type
           rdf:resource="http://purl.org/dc/dcmitype/StillImage" /></cc:Work></rdf:RDF></metadata><defs
     id="defs6"><clipPath
       id="clipPath18"
       clipPathUnits="userSpaceOnUse"><path
         id="path16"
         d="M 0,256 H 256 V 0 H 0 Z" /></clipPath><clipPath
       id="clipPath26"
       clipPathUnits="userSpaceOnUse"><path
         id="path24"
         d="M 44,252 H 212 V 4 H 44 Z" /></clipPath></defs><g
     transform="matrix(1.3333333,0,0,-1.3333333,-58.666665,335.99999)"
     id="g10"><g
       id="g12"><g
         clip-path="url(#clipPath18)"
         id="g14"><g
           id="g20"><g
             id="g22" /><g
             id="g34"><g
               style="opacity:0.5"
               id="g32"
               clip-path="url(#clipPath26)"><g
                 id="g30"
                 transform="translate(202,252)"><path
                   id="path28"
                   style="fill:#ffffff;fill-opacity:1;fill-rule:nonzero;stroke:none"
                   d="m 0,0 h -148 c -5.514,0 -10,-4.486 -10,-10 v -228 c 0,-5.514 4.486,-10 10,-10 H 0 c 5.514,0 10,4.486 10,10 V -10 C 10,-4.486 5.514,0 0,0" /></g></g></g></g><g
           transform="translate(202,12)"
           id="g36"><path
             id="path38"
             style="fill:#4c4c4c;fill-opacity:1;fill-rule:nonzero;stroke:none"
             d="m 0,0 h -148 c -1.104,0 -2,0.896 -2,2 v 228 c 0,1.104 0.896,2 2,2 H 0 c 1.104,0 2,-0.896 2,-2 V 2 C 2,0.896 1.104,0 0,0" /></g><g
           transform="translate(128,240)"
           id="g40"><path
             id="path42"
             style="fill:#666666;fill-opacity:1;fill-rule:nonzero;stroke:none"
             d="M 0,0 C -8.836,0 -16,-7.164 -16,-16 H 16 C 16,-7.164 8.837,0 0,0" /></g><g
           transform="translate(82,232)"
           id="g44"><path
             id="path46"
             style="fill:#404040;fill-opacity:1;fill-rule:nonzero;stroke:none"
             d="m 0,0 v 8 h -2 -8 -2 V 0 h -6 L -6,-8 6,0 Z" /></g><g
           transform="translate(186,232)"
           id="g48"><path
             id="path50"
             style="fill:#404040;fill-opacity:1;fill-rule:nonzero;stroke:none"
             d="m 0,0 v 8 h -2 -8 -2 V 0 h -6 L -6,-8 6,0 Z" /></g><path
           id="path52"
           style="fill:#ffffff;fill-opacity:1;fill-rule:nonzero;stroke:none"
           d="M 196,92 H 60 v 100 h 136 z" /><path
           id="path54"
           style="fill:#cccccc;fill-opacity:1;fill-rule:nonzero;stroke:none"
           d="M 196,192 H 60 v 28 h 136 z" /><path
           id="path56"
           style="fill:#262626;fill-opacity:1;fill-rule:nonzero;stroke:none"
           d="M 196,16 H 60 v 72 h 136 z" /><g
           transform="translate(72,204)"
           id="g58"><path
             id="path60"
             style="fill:#00b800;fill-opacity:1;fill-rule:nonzero;stroke:none"
             d="M 0,0 -12,16 V -12 Z" /></g><g
           transform="translate(196,220)"
           id="g62"><path
             id="path64"
             style="fill:#00b800;fill-opacity:1;fill-rule:nonzero;stroke:none"
             d="M 0,0 -12,-16 0,-28 Z" /></g><g
           transform="translate(62,32)"
           id="g66"><path
             id="path68"
             style="fill:#bf9a57;fill-opacity:1;fill-rule:nonzero;stroke:none"
             d="M 0,0 V 0 C -1.104,0 -2,0.896 -2,2 V 6 C -2,7.104 -1.104,8 0,8 1.104,8 2,7.104 2,6 V 2 C 2,0.896 1.104,0 0,0" /></g><g
           transform="translate(70,32)"
           id="g70"><path
             id="path72"
             style="fill:#bf9a57;fill-opacity:1;fill-rule:nonzero;stroke:none"
             d="M 0,0 V 0 C -1.104,0 -2,0.896 -2,2 V 6 C -2,7.104 -1.104,8 0,8 1.104,8 2,7.104 2,6 V 2 C 2,0.896 1.104,0 0,0" /></g><g
           transform="translate(78,32)"
           id="g74"><path
             id="path76"
             style="fill:#bf9a57;fill-opacity:1;fill-rule:nonzero;stroke:none"
             d="M 0,0 V 0 C -1.104,0 -2,0.896 -2,2 V 6 C -2,7.104 -1.104,8 0,8 1.104,8 2,7.104 2,6 V 2 C 2,0.896 1.104,0 0,0" /></g><g
           transform="translate(86,32)"
           id="g78"><path
             id="path80"
             style="fill:#bf9a57;fill-opacity:1;fill-rule:nonzero;stroke:none"
             d="M 0,0 V 0 C -1.104,0 -2,0.896 -2,2 V 6 C -2,7.104 -1.104,8 0,8 1.104,8 2,7.104 2,6 V 2 C 2,0.896 1.104,0 0,0" /></g><g
           transform="translate(94,32)"
           id="g82"><path
             id="path84"
             style="fill:#bf9a57;fill-opacity:1;fill-rule:nonzero;stroke:none"
             d="M 0,0 V 0 C -1.104,0 -2,0.896 -2,2 V 6 C -2,7.104 -1.104,8 0,8 1.104,8 2,7.104 2,6 V 2 C 2,0.896 1.104,0 0,0" /></g><g
           transform="translate(102,32)"
           id="g86"><path
             id="path88"
             style="fill:#bf9a57;fill-opacity:1;fill-rule:nonzero;stroke:none"
             d="M 0,0 V 0 C -1.104,0 -2,0.896 -2,2 V 6 C -2,7.104 -1.104,8 0,8 1.104,8 2,7.104 2,6 V 2 C 2,0.896 1.104,0 0,0" /></g><g
           transform="translate(110,32)"
           id="g90"><path
             id="path92"
             style="fill:#bf9a57;fill-opacity:1;fill-rule:nonzero;stroke:none"
             d="M 0,0 V 0 C -1.104,0 -2,0.896 -2,2 V 6 C -2,7.104 -1.104,8 0,8 1.104,8 2,7.104 2,6 V 2 C 2,0.896 1.104,0 0,0" /></g><g
           transform="translate(118,32)"
           id="g94"><path
             id="path96"
             style="fill:#bf9a57;fill-opacity:1;fill-rule:nonzero;stroke:none"
             d="M 0,0 V 0 C -1.104,0 -2,0.896 -2,2 V 6 C -2,7.104 -1.104,8 0,8 1.104,8 2,7.104 2,6 V 2 C 2,0.896 1.104,0 0,0" /></g><g
           transform="translate(126,32)"
           id="g98"><path
             id="path100"
             style="fill:#bf9a57;fill-opacity:1;fill-rule:nonzero;stroke:none"
             d="M 0,0 V 0 C -1.104,0 -2,0.896 -2,2 V 6 C -2,7.104 -1.104,8 0,8 1.104,8 2,7.104 2,6 V 2 C 2,0.896 1.104,0 0,0" /></g><g
           transform="translate(134,32)"
           id="g102"><path
             id="path104"
             style="fill:#bf9a57;fill-opacity:1;fill-rule:nonzero;stroke:none"
             d="M 0,0 V 0 C -1.104,0 -2,0.896 -2,2 V 6 C -2,7.104 -1.104,8 0,8 1.104,8 2,7.104 2,6 V 2 C 2,0.896 1.104,0 0,0" /></g><g
           transform="translate(142,32)"
           id="g106"><path
             id="path108"
             style="fill:#bf9a57;fill-opacity:1;fill-rule:nonzero;stroke:none"
             d="M 0,0 V 0 C -1.104,0 -2,0.896 -2,2 V 6 C -2,7.104 -1.104,8 0,8 1.104,8 2,7.104 2,6 V 2 C 2,0.896 1.104,0 0,0" /></g><g
           transform="translate(150,32)"
           id="g110"><path
             id="path112"
             style="fill:#bf9a57;fill-opacity:1;fill-rule:nonzero;stroke:none"
             d="M 0,0 V 0 C -1.104,0 -2,0.896 -2,2 V 6 C -2,7.104 -1.104,8 0,8 1.104,8 2,7.104 2,6 V 2 C 2,0.896 1.104,0 0,0" /></g><g
           transform="translate(158,32)"
           id="g114"><path
             id="path116"
             style="fill:#bf9a57;fill-opacity:1;fill-rule:nonzero;stroke:none"
             d="M 0,0 V 0 C -1.104,0 -2,0.896 -2,2 V 6 C -2,7.104 -1.104,8 0,8 1.104,8 2,7.104 2,6 V 2 C 2,0.896 1.104,0 0,0" /></g><g
           transform="translate(166,32)"
           id="g118"><path
             id="path120"
             style="fill:#bf9a57;fill-opacity:1;fill-rule:nonzero;stroke:none"
             d="M 0,0 V 0 C -1.104,0 -2,0.896 -2,2 V 6 C -2,7.104 -1.104,8 0,8 1.104,8 2,7.104 2,6 V 2 C 2,0.896 1.104,0 0,0" /></g><g
           transform="translate(174,32)"
           id="g122"><path
             id="path124"
             style="fill:#bf9a57;fill-opacity:1;fill-rule:nonzero;stroke:none"
             d="M 0,0 V 0 C -1.104,0 -2,0.896 -2,2 V 6 C -2,7.104 -1.104,8 0,8 1.104,8 2,7.104 2,6 V 2 C 2,0.896 1.104,0 0,0" /></g><g
           transform="translate(182,32)"
           id="g126"><path
             id="path128"
             style="fill:#bf9a57;fill-opacity:1;fill-rule:nonzero;stroke:none"
             d="M 0,0 V 0 C -1.104,0 -2,0.896 -2,2 V 6 C -2,7.104 -1.104,8 0,8 1.104,8 2,7.104 2,6 V 2 C 2,0.896 1.104,0 0,0" /></g><g
           transform="translate(190,32)"
           id="g130"><path
             id="path132"
             style="fill:#bf9a57;fill-opacity:1;fill-rule:nonzero;stroke:none"
             d="M 0,0 V 0 C -1.104,0 -2,0.896 -2,2 V 6 C -2,7.104 -1.104,8 0,8 1.104,8 2,7.104 2,6 V 2 C 2,0.896 1.104,0 0,0" /></g><g
           transform="translate(66,20)"
           id="g134"><path
             id="path136"
             style="fill:#bf9a57;fill-opacity:1;fill-rule:nonzero;stroke:none"
             d="M 0,0 V 0 C -1.104,0 -2,0.896 -2,2 V 6 C -2,7.104 -1.104,8 0,8 1.104,8 2,7.104 2,6 V 2 C 2,0.896 1.104,0 0,0" /></g><g
           transform="translate(74,20)"
           id="g138"><path
             id="path140"
             style="fill:#bf9a57;fill-opacity:1;fill-rule:nonzero;stroke:none"
             d="M 0,0 V 0 C -1.104,0 -2,0.896 -2,2 V 6 C -2,7.104 -1.104,8 0,8 1.104,8 2,7.104 2,6 V 2 C 2,0.896 1.104,0 0,0" /></g><g
           transform="translate(82,20)"
           id="g142"><path
             id="path144"
             style="fill:#bf9a57;fill-opacity:1;fill-rule:nonzero;stroke:none"
             d="M 0,0 V 0 C -1.104,0 -2,0.896 -2,2 V 6 C -2,7.104 -1.104,8 0,8 1.104,8 2,7.104 2,6 V 2 C 2,0.896 1.104,0 0,0" /></g><g
           transform="translate(90,20)"
           id="g146"><path
             id="path148"
             style="fill:#bf9a57;fill-opacity:1;fill-rule:nonzero;stroke:none"
             d="M 0,0 V 0 C -1.104,0 -2,0.896 -2,2 V 6 C -2,7.104 -1.104,8 0,8 1.104,8 2,7.104 2,6 V 2 C 2,0.896 1.104,0 0,0" /></g><g
           transform="translate(98,20)"
           id="g150"><path
             id="path152"
             style="fill:#bf9a57;fill-opacity:1;fill-rule:nonzero;stroke:none"
             d="M 0,0 V 0 C -1.104,0 -2,0.896 -2,2 V 6 C -2,7.104 -1.104,8 0,8 1.104,8 2,7.104 2,6 V 2 C 2,0.896 1.104,0 0,0" /></g><g
           transform="translate(106,20)"
           id="g154"><path
             id="path156"
             style="fill:#bf9a57;fill-opacity:1;fill-rule:nonzero;stroke:none"
             d="M 0,0 V 0 C -1.104,0 -2,0.896 -2,2 V 6 C -2,7.104 -1.104,8 0,8 1.104,8 2,7.104 2,6 V 2 C 2,0.896 1.104,0 0,0" /></g><g
           transform="translate(114,20)"
           id="g158"><path
             id="path160"
             style="fill:#bf9a57;fill-opacity:1;fill-rule:nonzero;stroke:none"
             d="M 0,0 V 0 C -1.104,0 -2,0.896 -2,2 V 6 C -2,7.104 -1.104,8 0,8 1.104,8 2,7.104 2,6 V 2 C 2,0.896 1.104,0 0,0" /></g><g
           transform="translate(122,20)"
           id="g162"><path
             id="path164"
             style="fill:#bf9a57;fill-opacity:1;fill-rule:nonzero;stroke:none"
             d="M 0,0 V 0 C -1.104,0 -2,0.896 -2,2 V 6 C -2,7.104 -1.104,8 0,8 1.104,8 2,7.104 2,6 V 2 C 2,0.896 1.104,0 0,0" /></g><g
           transform="translate(130,20)"
           id="g166"><path
             id="path168"
             style="fill:#bf9a57;fill-opacity:1;fill-rule:nonzero;stroke:none"
             d="M 0,0 V 0 C -1.104,0 -2,0.896 -2,2 V 6 C -2,7.104 -1.104,8 0,8 1.104,8 2,7.104 2,6 V 2 C 2,0.896 1.104,0 0,0" /></g><g
           transform="translate(138,20)"
           id="g170"><path
             id="path172"
             style="fill:#bf9a57;fill-opacity:1;fill-rule:nonzero;stroke:none"
             d="M 0,0 V 0 C -1.104,0 -2,0.896 -2,2 V 6 C -2,7.104 -1.104,8 0,8 1.104,8 2,7.104 2,6 V 2 C 2,0.896 1.104,0 0,0" /></g><g
           transform="translate(146,20)"
           id="g174"><path
             id="path176"
             style="fill:#bf9a57;fill-opacity:1;fill-rule:nonzero;stroke:none"
             d="M 0,0 V 0 C -1.104,0 -2,0.896 -2,2 V 6 C -2,7.104 -1.104,8 0,8 1.104,8 2,7.104 2,6 V 2 C 2,0.896 1.104,0 0,0" /></g><g
           transform="translate(154,20)"
           id="g178"><path
             id="path180"
             style="fill:#bf9a57;fill-opacity:1;fill-rule:nonzero;stroke:none"
             d="M 0,0 V 0 C -1.104,0 -2,0.896 -2,2 V 6 C -2,7.104 -1.104,8 0,8 1.104,8 2,7.104 2,6 V 2 C 2,0.896 1.104,0 0,0" /></g><g
           transform="translate(162,20)"
           id="g182"><path
             id="path184"
             style="fill:#bf9a57;fill-opacity:1;fill-rule:nonzero;stroke:none"
             d="M 0,0 V 0 C -1.104,0 -2,0.896 -2,2 V 6 C -2,7.104 -1.104,8 0,8 1.104,8 2,7.104 2,6 V 2 C 2,0.896 1.104,0 0,0" /></g><g
           transform="translate(170,20)"
           id="g186"><path
             id="path188"
             style="fill:#bf9a57;fill-opacity:1;fill-rule:nonzero;stroke:none"
             d="M 0,0 V 0 C -1.104,0 -2,0.896 -2,2 V 6 C -2,7.104 -1.104,8 0,8 1.104,8 2,7.104 2,6 V 2 C 2,0.896 1.104,0 0,0" /></g><g
           transform="translate(178,20)"
           id="g190"><path
             id="path192"
             style="fill:#bf9a57;fill-opacity:1;fill-rule:nonzero;stroke:none"
             d="M 0,0 V 0 C -1.104,0 -2,0.896 -2,2 V 6 C -2,7.104 -1.104,8 0,8 1.104,8 2,7.104 2,6 V 2 C 2,0.896 1.104,0 0,0" /></g><g
           transform="translate(186,20)"
           id="g194"><path
             id="path196"
             style="fill:#bf9a57;fill-opacity:1;fill-rule:nonzero;stroke:none"
             d="M 0,0 V 0 C -1.104,0 -2,0.896 -2,2 V 6 C -2,7.104 -1.104,8 0,8 1.104,8 2,7.104 2,6 V 2 C 2,0.896 1.104,0 0,0" /></g><g
           transform="translate(194,20)"
           id="g198"><path
             id="path200"
             style="fill:#bf9a57;fill-opacity:1;fill-rule:nonzero;stroke:none"
             d="M 0,0 V 0 C -1.104,0 -2,0.896 -2,2 V 6 C -2,7.104 -1.104,8 0,8 1.104,8 2,7.104 2,6 V 2 C 2,0.896 1.104,0 0,0" /></g></g></g></g></svg>

<svg xmlns="http://www.w3.org/2000/svg" xml:space="preserve" width="224" height="330.667"><defs><clipPath id="a" clipPathUnits="userSpaceOnUse"><path d="M0 256h256V0H0Z"/></clipPath><clipPath id="b" clipPathUnits="userSpaceOnUse"><path d="M44 252h168V4H44Z"/></clipPath></defs><g clip-path="url(#a)" transform="matrix(1.33333 0 0 -1.33333 -58.667 336)"><g clip-path="url(#b)" style="opacity:.5"><path d="M0 0h-148c-5.514 0-10-4.486-10-10v-228c0-5.514 4.486-10 10-10H0c5.514 0 10 4.486 10 10v228C10-4.486 5.514 0 0 0" style="fill:#fff;fill-opacity:1;fill-rule:nonzero;stroke:none" transform="translate(202 252)"/></g><path d="M0 0h-148a2 2 0 0 0-2 2v228a2 2 0 0 0 2 2H0a2 2 0 0 0 2-2V2a2 2 0 0 0-2-2" style="fill:#4c4c4c;fill-opacity:1;fill-rule:nonzero;stroke:none" transform="translate(202 12)"/><path d="M0 0c-8.836 0-16-7.164-16-16h32C16-7.164 8.837 0 0 0" style="fill:#666;fill-opacity:1;fill-rule:nonzero;stroke:none" transform="translate(128 240)"/><path d="M0 0v8h-12V0h-6l12-8L6 0Z" style="fill:#404040;fill-opacity:1;fill-rule:nonzero;stroke:none" transform="translate(82 232)"/><path d="M0 0v8h-12V0h-6l12-8L6 0Z" style="fill:#404040;fill-opacity:1;fill-rule:nonzero;stroke:none" transform="translate(186 232)"/><path d="M196 92H60v100h136z" style="fill:#fff;fill-opacity:1;fill-rule:nonzero;stroke:none"/><path d="M196 192H60v28h136z" style="fill:#ccc;fill-opacity:1;fill-rule:nonzero;stroke:none"/><path d="M196 16H60v72h136z" style="fill:#262626;fill-opacity:1;fill-rule:nonzero;stroke:none"/><path d="m0 0-12 16v-28Z" style="fill:#00b800;fill-opacity:1;fill-rule:nonzero;stroke:none" transform="translate(72 204)"/><path d="m0 0-12-16L0-28Z" style="fill:#00b800;fill-opacity:1;fill-rule:nonzero;stroke:none" transform="translate(196 220)"/><path d="M0 0a2 2 0 0 0-2 2v4a2 2 0 0 0 4 0V2a2 2 0 0 0-2-2" style="fill:#bf9a57;fill-opacity:1;fill-rule:nonzero;stroke:none" transform="translate(62 32)"/><path d="M0 0a2 2 0 0 0-2 2v4a2 2 0 0 0 4 0V2a2 2 0 0 0-2-2" style="fill:#bf9a57;fill-opacity:1;fill-rule:nonzero;stroke:none" transform="translate(70 32)"/><path d="M0 0a2 2 0 0 0-2 2v4a2 2 0 0 0 4 0V2a2 2 0 0 0-2-2" style="fill:#bf9a57;fill-opacity:1;fill-rule:nonzero;stroke:none" transform="translate(78 32)"/><path d="M0 0a2 2 0 0 0-2 2v4a2 2 0 0 0 4 0V2a2 2 0 0 0-2-2" style="fill:#bf9a57;fill-opacity:1;fill-rule:nonzero;stroke:none" transform="translate(86 32)"/><path d="M0 0a2 2 0 0 0-2 2v4a2 2 0 0 0 4 0V2a2 2 0 0 0-2-2" style="fill:#bf9a57;fill-opacity:1;fill-rule:nonzero;stroke:none" transform="translate(94 32)"/><path d="M0 0a2 2 0 0 0-2 2v4a2 2 0 0 0 4 0V2a2 2 0 0 0-2-2" style="fill:#bf9a57;fill-opacity:1;fill-rule:nonzero;stroke:none" transform="translate(102 32)"/><path d="M0 0a2 2 0 0 0-2 2v4a2 2 0 0 0 4 0V2a2 2 0 0 0-2-2" style="fill:#bf9a57;fill-opacity:1;fill-rule:nonzero;stroke:none" transform="translate(110 32)"/><path d="M0 0a2 2 0 0 0-2 2v4a2 2 0 0 0 4 0V2a2 2 0 0 0-2-2" style="fill:#bf9a57;fill-opacity:1;fill-rule:nonzero;stroke:none" transform="translate(118 32)"/><path d="M0 0a2 2 0 0 0-2 2v4a2 2 0 0 0 4 0V2a2 2 0 0 0-2-2" style="fill:#bf9a57;fill-opacity:1;fill-rule:nonzero;stroke:none" transform="translate(126 32)"/><path d="M0 0a2 2 0 0 0-2 2v4a2 2 0 0 0 4 0V2a2 2 0 0 0-2-2" style="fill:#bf9a57;fill-opacity:1;fill-rule:nonzero;stroke:none" transform="translate(134 32)"/><path d="M0 0a2 2 0 0 0-2 2v4a2 2 0 0 0 4 0V2a2 2 0 0 0-2-2" style="fill:#bf9a57;fill-opacity:1;fill-rule:nonzero;stroke:none" transform="translate(142 32)"/><path d="M0 0a2 2 0 0 0-2 2v4a2 2 0 0 0 4 0V2a2 2 0 0 0-2-2" style="fill:#bf9a57;fill-opacity:1;fill-rule:nonzero;stroke:none" transform="translate(150 32)"/><path d="M0 0a2 2 0 0 0-2 2v4a2 2 0 0 0 4 0V2a2 2 0 0 0-2-2" style="fill:#bf9a57;fill-opacity:1;fill-rule:nonzero;stroke:none" transform="translate(158 32)"/><path d="M0 0a2 2 0 0 0-2 2v4a2 2 0 0 0 4 0V2a2 2 0 0 0-2-2" style="fill:#bf9a57;fill-opacity:1;fill-rule:nonzero;stroke:none" transform="translate(166 32)"/><path d="M0 0a2 2 0 0 0-2 2v4a2 2 0 0 0 4 0V2a2 2 0 0 0-2-2" style="fill:#bf9a57;fill-opacity:1;fill-rule:nonzero;stroke:none" transform="translate(174 32)"/><path d="M0 0a2 2 0 0 0-2 2v4a2 2 0 0 0 4 0V2a2 2 0 0 0-2-2" style="fill:#bf9a57;fill-opacity:1;fill-rule:nonzero;stroke:none" transform="translate(182 32)"/><path d="M0 0a2 2 0 0 0-2 2v4a2 2 0 0 0 4 0V2a2 2 0 0 0-2-2" style="fill:#bf9a57;fill-opacity:1;fill-rule:nonzero;stroke:none" transform="translate(190 32)"/><path d="M0 0a2 2 0 0 0-2 2v4a2 2 0 0 0 4 0V2a2 2 0 0 0-2-2" style="fill:#bf9a57;fill-opacity:1;fill-rule:nonzero;stroke:none" transform="translate(66 20)"/><path d="M0 0a2 2 0 0 0-2 2v4a2 2 0 0 0 4 0V2a2 2 0 0 0-2-2" style="fill:#bf9a57;fill-opacity:1;fill-rule:nonzero;stroke:none" transform="translate(74 20)"/><path d="M0 0a2 2 0 0 0-2 2v4a2 2 0 0 0 4 0V2a2 2 0 0 0-2-2" style="fill:#bf9a57;fill-opacity:1;fill-rule:nonzero;stroke:none" transform="translate(82 20)"/><path d="M0 0a2 2 0 0 0-2 2v4a2 2 0 0 0 4 0V2a2 2 0 0 0-2-2" style="fill:#bf9a57;fill-opacity:1;fill-rule:nonzero;stroke:none" transform="translate(90 20)"/><path d="M0 0a2 2 0 0 0-2 2v4a2 2 0 0 0 4 0V2a2 2 0 0 0-2-2" style="fill:#bf9a57;fill-opacity:1;fill-rule:nonzero;stroke:none" transform="translate(98 20)"/><path d="M0 0a2 2 0 0 0-2 2v4a2 2 0 0 0 4 0V2a2 2 0 0 0-2-2" style="fill:#bf9a57;fill-opacity:1;fill-rule:nonzero;stroke:none" transform="translate(106 20)"/><path d="M0 0a2 2 0 0 0-2 2v4a2 2 0 0 0 4 0V2a2 2 0 0 0-2-2" style="fill:#bf9a57;fill-opacity:1;fill-rule:nonzero;stroke:none" transform="translate(114 20)"/><path d="M0 0a2 2 0 0 0-2 2v4a2 2 0 0 0 4 0V2a2 2 0 0 0-2-2" style="fill:#bf9a57;fill-opacity:1;fill-rule:nonzero;stroke:none" transform="translate(122 20)"/><path d="M0 0a2 2 0 0 0-2 2v4a2 2 0 0 0 4 0V2a2 2 0 0 0-2-2" style="fill:#bf9a57;fill-opacity:1;fill-rule:nonzero;stroke:none" transform="translate(130 20)"/><path d="M0 0a2 2 0 0 0-2 2v4a2 2 0 0 0 4 0V2a2 2 0 0 0-2-2" style="fill:#bf9a57;fill-opacity:1;fill-rule:nonzero;stroke:none" transform="translate(138 20)"/><path d="M0 0a2 2 0 0 0-2 2v4a2 2 0 0 0 4 0V2a2 2 0 0 0-2-2" style="fill:#bf9a57;fill-opacity:1;fill-rule:nonzero;stroke:none" transform="translate(146 20)"/><path d="M0 0a2 2 0 0 0-2 2v4a2 2 0 0 0 4 0V2a2 2 0 0 0-2-2" style="fill:#bf9a57;fill-opacity:1;fill-rule:nonzero;stroke:none" transform="translate(154 20)"/><path d="M0 0a2 2 0 0 0-2 2v4a2 2 0 0 0 4 0V2a2 2 0 0 0-2-2" style="fill:#bf9a57;fill-opacity:1;fill-rule:nonzero;stroke:none" transform="translate(162 20)"/><path d="M0 0a2 2 0 0 0-2 2v4a2 2 0 0 0 4 0V2a2 2 0 0 0-2-2" style="fill:#bf9a57;fill-opacity:1;fill-rule:nonzero;stroke:none" transform="translate(170 20)"/><path d="M0 0a2 2 0 0 0-2 2v4a2 2 0 0 0 4 0V2a2 2 0 0 0-2-2" style="fill:#bf9a57;fill-opacity:1;fill-rule:nonzero;stroke:none" transform="translate(178 20)"/><path d="M0 0a2 2 0 0 0-2 2v4a2 2 0 0 0 4 0V2a2 2 0 0 0-2-2" style="fill:#bf9a57;fill-opacity:1;fill-rule:nonzero;stroke:none" transform="translate(186 20)"/><path d="M0 0a2 2 0 0 0-2 2v4a2 2 0 0 0 4 0V2a2 2 0 0 0-2-2" style="fill:#bf9a57;fill-opacity:1;fill-rule:nonzero;stroke:none" transform="translate(194 20)"/></g></svg>
